X:73
T:Polska från Mo härad
T:(SvL Småland 73)
R:Polska
S:Carl Gustaf Roos
O:Småland
B:Svenska Låtar Småland
M:3/4
L:1/8
K:A
E2 ((3AEA) c2|A2 (ce) a2|g2 (bg) (bg)|e2 (ae) (cA)|
E2 ((3AEA) c2|A2 (ce) a2|g2 (bg) (bg)|e2 a4:|
|:(a2 f)(A d)(f-|(3fgf e)(c A)c|e(d B)(G E)G|(Bc) (Ac) e2-|
e(a f)(A d)f|((3fgf e)(c A)c|(ed) B2 (EG)|B2 A4:|

